X:149
T:Matt Teehan's #1
R:polka
S:Maria Ryan & Lucia MacPartlin
Z:id:hn-polka-149
M:2/4
L:1/8
K:Ador
EA AB | c2 BA | dB G>B | AG ED |
EA AB | c2 BA | Be dB |1 A2 AG :|2 A2 ^cd ||
|: e>f ed | ^cA Ac | d>e d=c | BG Bd |
e>f ed | ^cd ef | ge dB |1 A2 ^cd :|2 A2 AG ||

